X: 072
T: Skene Reel
C: Bert Murray
R: reel
B: Bert Murray's "Bon Accord Collection" 1999 p.7
%
Z: 2011 John Chambers <jc:trillian.mit.edu>
M: C|
L: 1/8
K: G
ud2 |\
BGFG DB,DG | ECEG  DB,DG | FGAB cABG | F2A2 A2(dc) |
BGFG DB,DG | ECEG  DB,DG | FAfe dcBA | G2G2 G2 ||
u(Bc) |\
dgfg dBcA | BGFG EGDG | ECEG cABG | F2A2 A2(Bc) |
dgfg dBcA | BGFG EGDG | FAfe dcBA | G2G2 G2 |]
